X: 5077
T: Bride's Favourite, The
R: jig
M: 6/8
K: Gmajor
|:~G3 BAB|GBd gdB|AFD cBA|GBd gdB|
~G3 ~B3|GBd gdB|AFD cBA|1 BGG G2D:|2 BGG GBd||
|:g2a fa2|gdB GBd|gfe fed|~e3 e d/e/f|
gfe def|gfe dcB|AGF cBA|1 BGG GBd:|2 BGG G2D||
|:GBd ~g3|edc BcA|GBd ~g3|e (3fga g2a|
bgb afa|geg fdf|ed^c def|1 gBd g2d:|2 g b/a/g/f/ gdB||

